X: 13897
T: Fox On The Town, The
R: reel
M: 4/4
K: Gmajor
GEDG EDB,A,|G,2B,G, DG,B,D|GEDG E3F|G2FG EFGA|
BE (3EEE EDB,A,|G,2B,G, DG,B,D|EFGB AGED|DGGF G2EF:|
|:BE (3EEE BAGE|DB, (3B,B,B, DEGA|BE (3EEE BAGE|DEGB ABA2|
G2GE DEDB,|G,B,DG EDB,E|DEGA BGAF|GEDB, G,2GA:|

